X:1
T: Marleen's Last Goodnight
I:
C: W-28
C: Bruce A. Randall 1992
M: 3/4
L: 1/4
Z:
R: waltz
K: G
G/A/| "G"Bzd/B/| "D"ABA| "C"GEG| "G"D2G/A/| Bzd/B/| GAB| "A7"AEG| "D"F2G/A/|
      "G"Bzd/B/| "D"ABA| "C"GEG| "G"D2G/A/| Bdz/B/| "D"ABA| "C"G3-| "G"G2|]
|:\
d/d/| "C"ece| g2f/e/| "G"dBd| g2 d/d/|"A"^cBA| "A7"AB^c| "D"d3-| "D7"d2G/A/|
      "G"Bzd/B/| "D"ABA| "C"GEG| "G"D2G/A/| Bdz/B/| "D"ABz/A/| "C"G3-| "G"G2:|
%
